X: 1
T: Gloucester Girl
C: Keith Murphy
R: reel
Z: 2015 John Chambers <jc:trillian.mit.edu>
M: C|
L: 1/8
K: G
|:\
"G"B3B- BAGA | Bd2d- dBAG |\
"Am"A3A- AGEG | "D"BGAG EGDG |
"G"AB2B- BAGA | Bd2d- dBAG |\
"Am"A3A- AGEG | "D"BGAG EGDG :|
|:\
"Am"A3A- AGEG | BGAG "D"EGDE |\
"G"G3G- GAB2 | "G/b"d3d- dBAG |
"Am"A3A- AGEG | BGAG "D"EGD2 |\
"Em"eBG"D"d AG"G"B2- | B2A2 G2E2 :|
